X: 48
T: Stomp Dance Song (d)
C: Anon.
%%abc-version 2.0
%%abcx-abcm2ps-target-version 5.9.1 (29 Sep 2008)
%%abc-creator hum2abc beta
%%abcx-conversion-date 2020/08/10 20:56:09
%%abc-copyright Electronic Copyright 2000 David Huron
%%abc-edited-by David Huron
%%abcx-initial-encoding-date August 28, 2000
%%humdrum-veritas 2881057808
%%humdrum-veritas-data 3848326112
%%linebreak <none>
%%barnumbers 0
L: 1/16
M: 3/4
Q: 1/4=76
K: Eb clef=bass
E2 C2 B, B,2 G, G,2 B, z[M:5/8] | 
B,2 B, F, B,2 B,2 C3/ B,/[M:2/4] | 
B,2> G,2 G,2 B, z[M:5/8] | 
B,2 B, F, B,2 B,2 C3/ D/[M:2/4] | 
C2> B2 G,2 B, z | 
B,2 B, F, B,2 !fermata!z2[M:3/8] | 
B,2 B, B, C3/ D/[M:2/4] | 
C2> B,2 G,2 B, z | 
B,2 B, F, B, z B, B, | 
C> D C> B, G,2 D z | 
B,2 B, F, B, z B, B, | 
C> D C3/ B, G,2 B, z | 
B,2 B, F, B, z B, B, | 
C> D C> B, G,2 B, z[M:5/8] | 
B,2 B, F, B, z E2 C3/ C/[M:2/4] | 
B,2> G,2 G,2 B, z[M:5/8] | 
B,2 B, F, B, z B,2 C3/ B,/[M:2/4] | 
B,2> G,2 G,2 B, z[M:5/8] | 
B,2 B, F, B, z E2 C3/ E/[M:2/4] | 
C2> B,2 G,2 B, z[M:5/8] | 
B,2 B, F, B, z B,2 C3/ B,/[M:2/4] | 
B,2> G,2 G,2 B, z[M:3/8] | 
B,2 B, F, B, z/ B,/ | 
B,4B, z |]  


